X:1
T:Title
%%score ( 1 2 3 )
L:1/8
Q:1/4=120
M:2/4
K:C
V:1 treble nm="Part_1"
V:2 treble 
V:3 treble 
V:1
!>(! z2!>)! [d'f']8 | E2 G2 | c2 e2 | g4- | g4 | f2 .d2 | e2 c2 | c4 | c4 | c2 d2 | %10
 e2 f/8>e/8d/8c/8 x3/2 | d4 | (c/ d3) z/ | (c/ d3) z/ | G4 | B2 c2 | d2 e/8>d/8c/8_B/8 x3/2 | c4 :: %18
 _B,2 G2 | _A2 F2 | G2 _A2 | F2 G2 | E3/2D/8E/8 F2 x/4 | _B,B, G2 | _A2 F2 | G2 _A2 | F2 G2 | %27
 E3/2D/8E/8 F2 x/4 | _B,B, G2 | _A2 F2 | G2 _A2 | c2 B2 | G2 _B2 | A2 F2 | _A2 G2 | E2 F2 | G4 | %37
 g4 | G4 | G,4 :| B,/ C3- z/ |] C2 E2 |: z2 z2 E2 | F2 E2 | g2 f2 | e2 d2 | E2 D2 | E2 D2 | f2 e2 | %49
 d2 c2 | D2 C2 | D2 C2 | e2 d2 | c2 B2 | C2 B,2 | C2 D2 | E2 D2 | C2 E2 :| B,4- z2 |] %59
[M:3/4] B,2 A,B, z2 |[M:4/4][K:treble+8] z2 |: [d'f']8 (3:2:2C z/ (3C!p!C z!p! (3:2:2C z/ D2 CB, | %62
 CCCC D2 z CB, | CDDD E2 DC | D3 E FEDC | F,3 E, E,>D, C,2 | E,3 D, D,>C, B,,2 | %67
 C,D,/E,/ D,C, C,>B,, A,,!>(!B,, | z3 D, E,D,A,,!>)!B,, :| C,C,C,D, E, z/ D,/ A,,B,, | %70
 C,C,C,D, E,D,A,,B,, | C,3 (3D,/C,/B,,/ C,2 C,>D, | E,2 E,2 F,2 D,2 | C,2 C, E,2 D,C,D, | %74
 C,4 D,2 E,2 | D,2 F,2 z E, F,G, | F,>E, D,>C, B,,2 D,>E, | F,2 E,D, E,3 D, | C,2 C, E,2 D,C,D, | %79
 C,4 A,,2 B,,2 C,2 D,E,- E,C,D,B,, | C,3 (3D,/C,/B,,/ C,2 C,>D, | E,2 E,2 F,2 D,2 | %82
 C,2 C,E,- E,D,C,D, | C,4 D,2 E,2 | D,2 F,4 D,>E, | F,2 F,E, E,2 E,D, | C,2 C,E,- E, D,2 C, | %87
 G,4- G, E,2 F, | G,2 G,G, E,F,G,A, | A,2 A,2- A, G,2 A, | B,4 B, G,2 G, | C2 C2- CB,_A,G, | %92
 B,2 _A,(3B,/A,/G,/ A, G,2 F, | _A,2 G,2 z =A, G,F, | E,G,F,E, D,F,E,D, | C,2 G,2 z E, D,E, | %96
 F,>E, D,>C, C,2 z2 | x8 | z2 z2 x4 ||[K:G][K:treble] Ez2!>!F |: G4 _A2 G2 | F2 z G4 EF | %102
 G4 _A2 G2 | F2 G4 FG | A2 G2 x4 | G2 B4 G2 | c2 B_A B2 AG | A2 GF G2 F!>(!E | %108
 z3 x E/F/E/D/ E!>)!F :| (3z .G F G E/F/E/D/ E>F x |: z2 !>!G3 _A2 G | G2 F2 F G2 F | %112
 G2 FE z G FG | FE E2 D3 E | F3 G2 _A2 F | G2 G2 E2 F2 | G2 _A F2 GAB | z3 [G_B]2 .G/F/ G2 E>F :| %118
 .G3 (3:2:2[G_B].G/ F/ G2 G>A |: B3 _A2 G2 F | _A2 G2 z A2 B | c2 B_A G G2 A | B3 _A2 G2 F | %123
 _AGF E2 F2 G | _A>G FE E2 F2 | G2 _A F2 GAB |!<(! z3 (3_A/G/F/ G2 G>!<)!A :| %127
!>(! .G3 (3:2:2[G_B].G/ F/.G G2!>)! G |] z _A2 A z G2 F | F2 EF EEFG | G<F z _A2 G2 F | %131
 _A2 GE F G2 G | z _A2 A z G2 F | F2 EF EEFG | G<F z _A2 G2 F | B2 _A2 B2 A2 | G2 _A2 G2 F2 | %137
 _A2 G2 E2 F2 | G2 _A F2 G AB | G3 (3_A/G/F/ G G2 G | z _A2 A z G2 F | F2 EF EEFG x | %142
 G<F z _A2 G2 F | G8 | _A2 B4 c2 | d/_e/d/c/ B3 B2 B | B3 c2 c Bc | (3cB_A G!mp! B2 B2 B | %148
 B3 c2 c Bc | (3cB_A G!mp! B2 B2 B | B3 c2 c Bc | (3cB_A G z z G2 A | F4 z _A2 B | _A G3 z G2 A | %154
 G F3 z _A2 B | _A G4 z GA | %156
[M:4/4] c2 z (3cB_A G2 z B>A z A2 G2 F2 G4 (3ABA G2 (3ABA G2 (3ABA G2 G4 F4 | %157
[M:4/4] z G2 G G2 G2- | G_B3/2_AG G2 G2- | G_B3/2_AG A2 B/A/G/A/ | G/^F/ G2 G G2 G2- | %161
 G_B3/2_AG G2 G2- | G_B A/4AG A2 B/A/G/A/ | G/F/ G2 _A _B3 c | !tenuto!c_B/AG c2 c2 x/ | %165
 z B _AG B2 A(3B/A/G/ | _A G2 F A2 G2 | z A GF EGFE | DFED C2 G2 | z E DE F>D D>C | %170
 C2 z2 z2 z2 a' | x8 | x8 |: z c4 x3 | z2 A2 B2 d2 | d3 c c3 A | G3 E G4 | z2 E2 F2 A2 | %178
 A3 (3B/A/G/ A2 F2 | E2 G2 A2 B2 | B3 B2 z2 G2 | =F2 A2 B2 c2 | B3 A c4 | z2 A2 B2!>(! c2 | %184
 z3 B3 A!>)! c4 :| B3 A c3 d/c/B/ | c4 z z !>!B x | c2 c3 B2 A | c8 | c8- | c3 B BAAG | %191
 _B3 G G2 =F>A | A2 G2 B2 A2 | cB c2 G2 _B2 | !tenuto!BGG=F A2 FE | G3 =F F4 | =F2 EF E>D C2 |: %197
 G4 c4 | z2 A2 B2 d2 | d3 c c3 A | G3 E G4 | z2 E2 =F2 A2 | A3 (3B/A/G/ A2 =F2 | E2 G2 A2 B2 | %204
 B3 (3c/B/A/ B2 G2 | =F2 A2 B2 c2 | B3 A c4 :| z2 A2 B2 c2 | B3 A c4 | G4 z =F EF |: G3 _A2 =F EG | %211
 GCEG z =F EF | G3 _A2 =F EG | GCEG z _A E=F | G3 _A2 =F EG | G z z B2 _A2 G | .B3 _A A2 G2 | %217
 _A/G/=F/E/ F2 E E2 F :| .c4 G4 |] c2 B2 c2 d2 | B2 _A2 B2 c>c | B>_A G2 z A GA | %222
 =F3 _A/G/ z2 _B>A | G2 G2 =F2 G2 | z2 _A2 _B2 c2 | c2 _B2 _A2 G2 | z2 _B4 _A2 | c2 _B2 A2 G2 | %228
 =F2 G4 A2 | A2 _B4 c2 | c2 _B2 _A2 G2 | z2 _B4 _A2 | c2 _B2 _A2 G2 | =F G2 c c z z _B | %234
 _A _B2 c B2 A2 | G _A2 _B A2 G2 | =F G2 _A G2 FF | =F F2 _B B2 z A | !tenuto!A _B2 c cB/_AG x/ | %239
 z3/2 _A2 _B A3 G- | G G2 G G2 G2 | d4 _B2 c2- | c2 A2 _B>A GA | G G2 c c z z _B | _A _B2 c B2 A2 | %245
 G A2 _B A2 G2 | =F G2 _A G2 FF | z =F2 _B B2 z3/2 _A | !tenuto!A _B2 c cB/_AG x/ | %249
 z3/2 _A2 _B A2 z G- |[K:Ab]S G G2 G G2 G2 | [f'b']2 z z2 B,2 x |: z B, CD EDCB, | C2 z2 B,2 C2 | %254
 z B, CD EDCB, | C2 z2 B,2 C2 | z C DE FEDC | F2 z2 E2 F2 | z F G/_A BAGF x/ | z3 B2 x3 :: %260
SS .c4 B2 d2- | d2 c2 B2 A2 | B4 A2 c2 z2 | c2 B2 A2 z2 G2 | A4 G2 B2- | !tenuto!B2 A2 G2 F2 | %266
 z G4- GF [GB]4 .GF | F6 C2 | E3 D FEDC x2 :| C2 z c4 x |: %270
 G2 GA B c4 c4 z B>A A2 G z A2 B2 G2 F G2 G2 z B, CB, .C2 :| %271
 AGAG F B4 =ABc dcBA _GFE F2 F2 z E G2 F E2 D z _FE F2 (3FED C2 | C2 c4 x2 |: %273
 G2 G G2 F2 z2 E2 G2 G G2 F2 z2 G3 FEF E2 E2 C2 E2 C4 :| %274
 A3 A A2 A2 G2 z2 C2 _E2 G4 G3 G G2 G2 F2 G/F/E/D/ C4 || %275
[K:Bb][M:4/4] _A3 A A2 A2 G2 z2 C2 _E2 G4 G3 G G2 G2 F3 E G>[FF]FE E_DFE GG/F/E/ C2 | %276
[M:4/4] z2 c4 A2 |: B>A G4 F2 | G2 B3 A G2 | A>G F4 G/F/E/D/ | C2 D4 E2 | G2 F4 D2 | F2 E4 C2 | %283
 E2 DC D2 CB, |!>(! z2[K:treble+8] cc c2 BA!>)! :|!>(! .C C2 E G2!>)! G2 |: z A GF G3 G- | %287
 G A2 B AG!>(! G/F/E/!>)!D/ |: C C2 E G2 G2 | z A,2 G, G,3 G,- | G, A,2 B, A,G, G,/F,/E,/D,/ | %291
 z2 C, C,2 E, G,2 G,2 | z A,2 G, G,3 G,- | G, A,2 B, A,G, z G,2 | z B, A,G, F,2 _A,2 | %295
 G,3 F, _A,G, =B,2 |!<(! z3 _A, G,G, G,/F,/E,/D,/!<)! :|!<(! ._A, C2 A, G,2!<)! G,2 |: %298
 z G,2 G, G,F, z F, | F, _A,2 A, A,G, z =B, | B,=B,_A,C B,>A, G,G,- | G, G,2 G, G,F, z F, | %302
 F, _A,2 A, A,G, z =B,- | B,B,_A,C =B,>A, G,G,- | G, G,2 G, G,3 _A, | A,F,/E,/ D,F, _A,3 A, | %306
 G, _A,2 =B, A,2 G,2 :: z G,2 G, C3 D | CCB,A, B,>A, G,G,- |!mp! G, G,2 A, B,3 C | %310
 B,B,A,G, F,>E, F,E,/D,/ | C, G,2 G, C3 D | CCB,A, B,>A, G,G,- | G, G,2 A, B,3 C | %314
 B,B,A,G, A,>G, F,2 | z G,2 A, B,3 A, | G, G,2 F, A,2 A,2 | z E,2 F, G,3 _A,- | A, G,2 F, G,2 G,2 | %319
 F, G,2 A, B,3 A, | G, G,2 F, A,2 A,2 | z E,2 F, G,3 A, |S A, G,2 F, G,2 G,2 :| x8 |] z2 x6 | %325
 z2 x6 |] %326
V:2
 x2 G,2!>)!!>(! C2 x4 | x4 | x4 | x4 | x4 | x4 | x4 | x4 | x4 | x4 | x4 | x4 | x4 | x4 | x4 | x4 | %16
 x4 | x4 :: x4 | x4 | x4 | x4 | x4 | x4 | x4 | x4 | x4 | x4 | x4 | x4 | x4 | x4 | x4 | x4 | x4 | %35
 x4 | x4 | x4 | x4 | x4 :| x4 |] x4 |: F2 x4 | x4 | x4 | x4 | x4 | x4 | x4 | x4 | x4 | x4 | x4 | %53
 x4 | x4 | x4 | x4 | x4 :| x6 |][M:3/4] x6 |[M:4/4][K:treble+8] x2 |: x16 | x9 | x8 | x8 | x8 | %66
 x8 | x8 | z C,2 x5 :| x8 | x8 | x8 | x8 | x8 | x8 | x8 | x8 | x8 | x8 | x16 | x8 | x8 | x8 | x8 | %84
 x8 | x8 | x8 | x8 | x8 | x8 | x8 | x8 | x8 | x8 | x8 | x8 | x8 | x8 | x8 ||[K:G][K:treble] x4 |: %100
 x8 | x9 | x8 | x8 | x8 | x8 | x8 | x8 | z G FG x4 :| x8 |: G2 x6 | x8 | x8 | x8 | x8 | x8 | x8 | %117
 G3 x7 :| x17/2 |: x8 | x8 | x8 | x8 | x8 | x8 | x8 | G3 x5 :| x17/2 |] x8 | x8 | x8 | x8 | x8 | %133
 x8 | x8 | x8 | x8 | x8 | x8 | x8 | x8 | x2 z2 x3 z2 | x8 | x8 | x8 | x8 | x8 | x8 | x8 | x8 | x8 | %151
 x8 | x8 | x8 | x8 | x8 |[M:4/4] x41 |[M:4/4] x8 | x17/2 | x17/2 | x8 | x17/2 | x33/4 | x8 | x8 | %165
 x8 | x8 | x8 | x8 | x8 | x9 | x8 | x8 |: G4 x4 | x8 | x8 | x8 | x8 | x8 | x8 | z2 (3c/B/A/ x6 | %181
 x8 | x8 | x8 | x11 :| x17/2 | x5 A2 x | x8 | x8 | x8 | x8 | x8 | x8 | x8 | x8 | x8 | x8 |: x8 | %198
 x8 | x8 | x8 | x8 | x8 | x8 | x8 | x8 | x8 :| x8 | x8 | x8 |: x8 | x8 | x8 | x8 | x8 | x8 | x8 | %217
 x8 :| x8 |] x8 | x8 | x8 | z2 _A2 x4 | x8 | x8 | x8 | x8 | x8 | x8 | x8 | x8 | x8 | x8 | x8 | x8 | %235
 x8 | x8 | x8 | x8 | x17/2 | x8 | x8 | x8 | x8 | x8 | x8 | x8 | x17/2 | x8 | x17/2 |[K:Ab] x8 | %251
 x2 C2 z2 C2 |: x8 | x8 | x8 | x8 | x8 | x8 | x8 | c2 z2 c2 x2 :: x8 | x8 | x10 | x10 | x8 | x8 | %266
 x13 | x8 | x6 g'4 :| x8 |: x37 :| x40 | x8 |: x38 :| x36 ||[K:Bb][M:4/4] x42 _D2 x/ |[M:4/4] x8 |: %277
 x8 | x8 | x8 | x8 | x8 | x8 | x8 | C,2[K:treble+8] x6 :| x8 |: x8 | x8 |: x8 | x8 | x8 | %291
 x6 z2 x2 | x8 | x9 | x8 | x8 | _A,2 C2 x4 :| x8 |: x8 | x8 | x8 | x8 | x8 | x8 | x8 | x8 | x8 :: %307
 x8 | x8 | x8 | x8 | x8 | x8 | x8 | x8 | x8 | x8 | x8 | x8 | x8 | x8 | x8 | x8 :| x8 |] x8 | x8 |] %326
V:3
 x10 | x4 | x4 | x4 | x4 | x4 | x4 | x4 | x4 | x4 | x4 | x4 | x4 | x4 | x4 | x4 | x4 | x4 :: x4 | %19
 x4 | x4 | x4 | x4 | x4 | x4 | x4 | x4 | x4 | x4 | x4 | x4 | x4 | x4 | x4 | x4 | x4 | x4 | x4 | %38
 x4 | x4 :| x4 |] x4 |: x6 | x4 | x4 | x4 | x4 | x4 | x4 | x4 | x4 | x4 | x4 | x4 | x4 | x4 | x4 | %57
 x4 :| x6 |][M:3/4] x6 |[M:4/4][K:treble+8] x2 |: x16 | x9 | x8 | x8 | x8 | x8 | x8 | x8 :| x8 | %70
 x8 | x8 | x8 | x8 | x8 | x8 | x8 | x8 | x8 | x16 | x8 | x8 | x8 | x8 | x8 | x8 | x8 | x8 | x8 | %89
 x8 | x8 | x8 | x8 | x8 | x8 | x8 | x8 | x8 | x8 ||[K:G][K:treble] x4 |: x8 | x9 | x8 | x8 | x8 | %105
 x8 | x8 | x8 | x8 :| x8 |: x8 | x8 | x8 | x8 | x8 | x8 | x8 | x10 :| x17/2 |: x8 | x8 | x8 | x8 | %123
 x8 | x8 | x8 | x8 :| x17/2 |] x8 | x8 | x8 | x8 | x8 | x8 | x8 | x8 | x8 | x8 | x8 | x8 | x8 | %141
 x9 | x8 | x8 | x8 | x8 | x8 | x8 | x8 | x8 | x8 | x8 | x8 | x8 | x8 | x8 |[M:4/4] x41 | %157
[M:4/4] x8 | x17/2 | x17/2 | x8 | x17/2 | x33/4 | x8 | x8 | x8 | x8 | x8 | x8 | x8 | x9 | x8 | %172
 x8 |: x8 | x8 | x8 | x8 | x8 | x8 | x8 | x9 | x8 | x8 | x8 | x11 :| x17/2 | x8 | x8 | x8 | x8 | %190
 x8 | x8 | x8 | x8 | x8 | x8 | x8 |: x8 | x8 | x8 | x8 | x8 | x8 | x8 | x8 | x8 | x8 :| x8 | x8 | %209
 x8 |: x8 | x8 | x8 | x8 | x8 | x8 | x8 | x8 :| x8 |] x8 | x8 | x8 | x8 | x8 | x8 | x8 | x8 | x8 | %228
 x8 | x8 | x8 | x8 | x8 | x8 | x8 | x8 | x8 | x8 | x8 | x17/2 | x8 | x8 | x8 | x8 | x8 | x8 | x8 | %247
 x17/2 | x8 | x17/2 |[K:Ab] x8 | x3 b4 x |: x8 | x8 | x8 | x8 | x8 | x8 | x8 | x8 :: x8 | x8 | %262
 x10 | x10 | x8 | x8 | x13 | x8 | x7 g' x2 :| x8 |: x37 :| x40 | x8 |: x38 :| x36 || %275
[K:Bb][M:4/4] x89/2 |[M:4/4] x8 |: x8 | x8 | x8 | x8 | x8 | x8 | x8 | x2[K:treble+8] x6 :| x8 |: %286
 x8 | x8 |: x8 | x8 | x8 | x10 | x8 | x9 | x8 | x8 | x8 :| x8 |: x8 | x8 | x8 | x8 | x8 | x8 | x8 | %305
 x8 | x8 :: x8 | x8 | x8 | x8 | x8 | x8 | x8 | x8 | x8 | x8 | x8 | x8 | x8 | x8 | x8 | x8 :| x8 |] %324
 x8 | x8 |] %326

